Improvs/dist/images/footer_page/instagram.svg

<svg width="18" height="18" viewBox="0 0 18 18" fill="none" xmlns="http://www.w3.org/2000/svg">
<path d="M9 6.5625C7.65383 6.5625 6.5625 7.65383 6.5625 9C6.5625 10.3462 7.65383 11.4375 9 11.4375C10.3462 11.4375 11.4375 10.3462 11.4375 9C11.4375 7.65383 10.3462 6.5625 9 6.5625Z" fill="white"/>
<path fill-rule="evenodd" clip-rule="evenodd" d="M5.07668 2.3115C7.6628 2.02247 10.3363 2.02247 12.9224 2.3115C14.3462 2.47063 15.4946 3.59247 15.6617 5.02125C15.9709 7.66503 15.9709 10.3358 15.6617 12.9795C15.4946 14.4084 14.3462 15.5302 12.9224 15.6893C10.3363 15.9783 7.6628 15.9783 5.07668 15.6893C3.65288 15.5302 2.50449 14.4084 2.33738 12.9795C2.02817 10.3358 2.02817 7.66503 2.33738 5.02125C2.50449 3.59247 3.65288 2.47063 5.07668 2.3115ZM12.7495 4.5004C12.3353 4.5004 11.9995 4.83619 11.9995 5.2504C11.9995 5.66461 12.3353 6.0004 12.7495 6.0004C13.1638 6.0004 13.4995 5.66461 13.4995 5.2504C13.4995 4.83619 13.1638 4.5004 12.7495 4.5004ZM5.43703 9.0004C5.43703 7.03289 7.03202 5.4379 8.99953 5.4379C10.9671 5.4379 12.562 7.03289 12.562 9.0004C12.562 10.968 10.9671 12.5629 8.99953 12.5629C7.03202 12.5629 5.43703 10.968 5.43703 9.0004Z" fill="white"/>
</svg>

<svg width="18" height="18" fill="none" xmlns="http://www.w3.org/2000/svg"><path d="M9 6.563a2.438 2.438 0 100 4.875 2.438 2.438 0 000-4.876z" fill="#fff"/><path fill-rule="evenodd" clip-rule="evenodd" d="M5.077 2.312a35.604 35.604 0 017.845 0 3.105 3.105 0 012.74 2.71 34.266 34.266 0 010 7.957 3.105 3.105 0 01-2.74 2.71c-2.586.29-5.26.29-7.845 0a3.105 3.105 0 01-2.74-2.71 34.253 34.253 0 010-7.958 3.105 3.105 0 012.74-2.71zM12.749 4.5a.75.75 0 100 1.5.75.75 0 000-1.5zM5.437 9a3.563 3.563 0 117.125 0 3.563 3.563 0 01-7.125 0z" fill="#fff"/></svg>
